X: 27
T: Missa In feuers hitz / Sanctus
N: Derived from Mar1007d-Missa_In_feuers_hitz-Sanctus.krn
C: Johannes Martini
%%abc-version 2.0
%%abcx-abcm2ps-target-version 5.9.1 (29 Sep 2008)
%%abc-creator hum2abc beta
%%abcx-conversion-date 2019/02/17 07:19:41
%%abc-edited-by Jesse Rodin
%%abc-edited-by Chris Gage 10-02-2014
%%abcx-initial-encoding-date 2015/03/07/
%%humdrum-veritas 1641532357
%%humdrum-veritas-data 26934771
%%linebreak <none>
%%barnumbers 0
L: 1/4
M: 3/1
Q: 1/2=120
V: 1 clef=treble
V: 2 clef=treble-8
V: 3 clef=treble-8
K: C
[V:1] c6BAG4 | 
[V:2] c12 | 
[V:3] g8e4 | 
[V:1] c4B2A3GA2 | 
[V:2] e4f8 | 
[V:3] c4d2cBA4 | 
[V:1] B4G3FE4 | 
[V:2] g8c4 | 
[V:3] G8z2g2- | 
[V:1] D2G4^F2F3E | 
[V:2] B4A8 | 
[V:3] gfd2e2c3Bc2 | 
[V:1] G4d6c2 | 
[V:2] G12 | 
[V:3] d6B4A2 | 
[V:1] B3GB2A2G2c2 | 
[V:2] g4f4e4 | 
[V:3] G6A2c4 | 
[V:1] d2e3dc4B2 | 
[V:2] d2c2e4d4 | 
[V:3] B2A2c4G4 | 
[V:1] c4z2c2e4- | 
[V:2] c8z4 | 
[V:3] z2c2e3fg2a2 | 
[V:1] e2d2c2BAG4 | 
[V:2] c4e6c2 | 
[V:3] g4c4c4- | 
[V:1] G4A4B4 | 
[V:2] e4f4g4 | 
[V:3] c2B2A4G4 | 
[V:1] c6B2A4 | 
[V:2] e2a4g3^f^f2 | 
[V:3] A2F4G2d4 | 
[V:1] G4A6GF | 
[V:2] g4d8 | 
[V:3] e4f8 | 
[V:1] E4D4z2C2 | 
[V:2] c4B2G2A4 | 
[V:3] g2a3gg4^f2 | 
[V:1] DEFGA2G4^F2 | 
[V:2] G2d4B2A4 | 
[V:3] g2f3ed4c2 | 
[V:1] G8A4 | 
[V:2] G8z4 | 
[V:3] d6g4f2 | 
[V:1] B4c4d2d2- | 
[V:2] G4A4B4- | 
[V:3] g4e4d4- | 
[V:1] dcBAG6A2 | 
[V:2] B4c8 | 
[V:3] d4e8 | 
[V:1] G2c2B2A4GF | 
[V:2] e4d8 | 
[V:3] c4f8 | 
[V:1] E2G4A2c3d | 
[V:2] c12 | 
[V:3] g2e3dcBA4 | 
[V:1] B4e4d2c2 | 
[V:2] g8f4 | 
[V:3] G4c4d2A2 | 
[V:1] c6B2B3A | 
[V:2] e4d8 | 
[V:3] c4G8 | 
[V:1] c12 ||  
[V:2] c12 ||  
[V:3] g12 ||  
[V:1]  [K:C] [K:clef=treble][M:2/1]c6B2 | 
[V:2]  [K:C] [K:clef=treble-8][M:2/1]z8 | 
[V:3]  [K:C] [K:clef=treble-8][M:2/1]z8 | 
[V:1] A4G4 | 
[V:2] z8 | 
[V:3] z8 | 
[V:1] E2A3GG2- | 
[V:2] z8 | 
[V:3] c6B2 | 
[V:1] G2^F2G4 | 
[V:2] z8 | 
[V:3] A4G4 | 
[V:1] E3FG2A2- | 
[V:2] z8 | 
[V:3] c8 | 
[V:1] A2F2G4 | 
[V:2] z8 | 
[V:3] d4e3f | 
[V:1] C4z2D2 | 
[V:2] z8 | 
[V:3] g2a4f2 | 
[V:1] E2G3FG2 | 
[V:2] z8 | 
[V:3] g4c4 | 
[V:1] A2F2G4 | 
[V:2] z8 | 
[V:3] z2d2e2g2- | 
[V:1] B4c2d2- | 
[V:2] z8 | 
[V:3] gfg2a2f2 | 
[V:1] dcBAG4 | 
[V:2] z8 | 
[V:3] g4e4 | 
[V:1] A2B4G2- | 
[V:2] z8 | 
[V:3] f2g3fed | 
[V:1] G2c4B2 | 
[V:2] z8 | 
[V:3] c2e2d4 | 
[V:1] c4G4- | 
[V:2] z8 | 
[V:3] c8- | 
[V:1] G2A2G2FE | 
[V:2] z8 | 
[V:3] c8 | 
[V:1] D4C4 | 
[V:2] z8 | 
[V:3] z4g4- | 
[V:1] z2F2E2G2- | 
[V:2] z8 | 
[V:3] g2a2g2fe | 
[V:1] G2F2E2DC | 
[V:2] z8 | 
[V:3] d4c4 | 
[V:1] B,3A,C4 | 
[V:2] z8 | 
[V:3] z2f2e2g2- | 
[V:1] z4c4 | 
[V:2] z8 | 
[V:3] g2f2e2dc | 
[V:1] d4c2A2- | 
[V:2] z8 | 
[V:3] B3Ac4 | 
[V:1] A2F2E2D2- | 
[V:2] z8 | 
[V:3] d4c2B2 | 
[V:1] D2G4^F2 | 
[V:2] z8 | 
[V:3] G4A4 | 
[V:1] G4A2B2- | 
[V:2] z8 | 
[V:3] G2c4d2 | 
[V:1] B2G2A2B2 | 
[V:2] z8 | 
[V:3] e4f2d2 | 
[V:1] c4G4 | 
[V:2] z8 | 
[V:3] c2e4c2- | 
[V:1] A2G4E2- | 
[V:2] z8 | 
[V:3] c2B2c4 | 
[V:1] E2D2E2C2- | 
[V:2] z8 | 
[V:3] G4g4 | 
[V:1] C2c4B2 | 
[V:2] z8 | 
[V:3] e2c2d4 | 
[V:1] c4c4- | 
[V:2] c8- | 
[V:3] c4A4- | 
[V:1] c2B2A2G2 | 
[V:2] c8 | 
[V:3] A2G2A2B2 | 
[V:1] G4A4 | 
[V:2] e4f4 | 
[V:3] c4A4 | 
[V:1] B3cd2e2- | 
[V:2] g8 | 
[V:3] G8 | 
[V:1] e2d2c4 | 
[V:2] c8 | 
[V:3] A8 | 
[V:1] B4A4- | 
[V:2] d8 | 
[V:3] G4d4- | 
[V:1] A2G2G4- | 
[V:2] B4c4 | 
[V:3] d4e4 | 
[V:1] G4^F4 | 
[V:2] A8 | 
[V:3] c8 | 
[V:1] G8 | 
[V:2] G8- | 
[V:3] e4d4 | 
[V:1] z4d4 | 
[V:2] G8 | 
[V:3] B4d4 | 
[V:1] e4d2c2 | 
[V:2] z8 | 
[V:3] c4B2A2 | 
[V:1] B4d4 | 
[V:2] z4g4 | 
[V:3] G4B4 | 
[V:1] c6BA | 
[V:2] a4g4 | 
[V:3] A4c4- | 
[V:1] G8 | 
[V:2] e4g4 | 
[V:3] c2d2e4 | 
[V:1] A4c4- | 
[V:2] f4e2d2 | 
[V:3] d4c2B2 | 
[V:1] c2d2e4- | 
[V:2] c8 | 
[V:3] A8- | 
[V:1] e4d2c2 | 
[V:2] e4f4 | 
[V:3] A8 | 
[V:1] B4d4- | 
[V:2] g8 | 
[V:3] G4_B4- | 
[V:1] d2c2c4- | 
[V:2] f4e4 | 
[V:3] B4c4 | 
[V:1] c4B4 | 
[V:2] d8 | 
[V:3] G8 | 
[V:1] c8 ||  
[V:2] c8 ||  
[V:3] g8 ||  
[V:1]  [K:C] [K:clef=treble][M:2/1]G8 | 
[V:2]  [K:C] [K:clef=treble-8][M:2/1]z8 | 
[V:3]  [K:C] [K:clef=treble-8][M:2/1]z8 | 
[V:1] F4G4- | 
[V:2] z8 | 
[V:3] z8 | 
[V:1] G2E4DC | 
[V:2] z8 | 
[V:3] g8 | 
[V:1] D4C4 | 
[V:2] z8 | 
[V:3] f4g2e2- | 
[V:1] G4F2A2- | 
[V:2] z8 | 
[V:3] e2dcd4 | 
[V:1] A2GFE4 | 
[V:2] z8 | 
[V:3] c4g4 | 
[V:1] D4C2D2 | 
[V:2] z8 | 
[V:3] f2a4gf | 
[V:1] E2G4F2 | 
[V:2] z8 | 
[V:3] e4d4 | 
[V:1] G2B2c2B2 | 
[V:2] z8 | 
[V:3] c2d2e2g2- | 
[V:1] A4G4 | 
[V:2] z8 | 
[V:3] g2f2g2e2 | 
[V:1] A2c4B2 | 
[V:2] z8 | 
[V:3] f2e2d4 | 
[V:1] c4G2A2- | 
[V:2] z8 | 
[V:3] c8 | 
[V:1] A2G2E4 | 
[V:2] z8 | 
[V:3] c4z2g2 | 
[V:1] F3EC4 | 
[V:2] z8 | 
[V:3] a4g2e2 | 
[V:1] z2D2E2C2- | 
[V:2] z8 | 
[V:3] f3ec4 | 
[V:1] C2B,2C2E2 | 
[V:2] z8 | 
[V:3] z2d2e2c2- | 
[V:1] D4C2c2- | 
[V:2] z8 | 
[V:3] c2B2c2e2 | 
[V:1] c2B2c2A2 | 
[V:2] z8 | 
[V:3] d4c4 | 
[V:1] G2d2e2c2 | 
[V:2] z8 | 
[V:3] z2B2c2A2 | 
[V:1] d3cB2A2- | 
[V:2] z8 | 
[V:3] G2d2e2c2 | 
[V:1] AGG4^F2 | 
[V:2] z8 | 
[V:3] d2B2A4 | 
[V:1] G4z4 | 
[V:2] z8 | 
[V:3] G8 | 
[V:1] E4F2G2- | 
[V:2] z8 | 
[V:3] c4z4 | 
[V:1] GFG2A2G2 | 
[V:2] z8 | 
[V:3] e4f2g2- | 
[V:1] E4D2EF | 
[V:2] z8 | 
[V:3] gfg2a2g2 | 
[V:1] G4F2ED | 
[V:2] z8 | 
[V:3] e4d2ef | 
[V:1] C4z2G2- | 
[V:2] z8 | 
[V:3] g4f2ed | 
[V:1] G2A2B2G2 | 
[V:2] z8 | 
[V:3] c4z2G2- | 
[V:1] B2c2d4 | 
[V:2] z8 | 
[V:3] G2A2B2G2 | 
[V:1] G4z2d2- | 
[V:2] z8 | 
[V:3] B2c2d4 | 
[V:1] d2e2d2f2- | 
[V:2] z8 | 
[V:3] G4z2d2- | 
[V:1] f2g2f3e/d/ | 
[V:2] z8 | 
[V:3] d2e2d2f2- | 
[V:1] c2B2A2G2- | 
[V:2] z8 | 
[V:3] f2g2f2ed | 
[V:1] G2c4B2 | 
[V:2] z8 | 
[V:3] c2e2d4 | 
[V:1] c4c4- | 
[V:2] c8- | 
[V:3] c4A4- | 
[V:1] c2B2A2G2 | 
[V:2] c8 | 
[V:3] A2G2A2B2 | 
[V:1] G4A4 | 
[V:2] e4f4 | 
[V:3] c4A4 | 
[V:1] B3cd2e2- | 
[V:2] g8 | 
[V:3] G8 | 
[V:1] e2d2c4 | 
[V:2] c8 | 
[V:3] A8 | 
[V:1] B4A4- | 
[V:2] d8 | 
[V:3] G4z4 | 
[V:1] A2G2G4- | 
[V:2] B4c4 | 
[V:3] d4e4 | 
[V:1] G4^F4 | 
[V:2] A8 | 
[V:3] c8 | 
[V:1] G8 | 
[V:2] G8- | 
[V:3] e4d4 | 
[V:1] z4d4 | 
[V:2] G8 | 
[V:3] B4d4 | 
[V:1] e4d4 | 
[V:2] z8 | 
[V:3] c4B2A2 | 
[V:1] B4d4 | 
[V:2] z4g4 | 
[V:3] G4B4 | 
[V:1] c6BA | 
[V:2] a4g4 | 
[V:3] A4c4- | 
[V:1] G8 | 
[V:2] e4g4 | 
[V:3] c2d2e4 | 
[V:1] A4c4- | 
[V:2] f4e2d2 | 
[V:3] d4c2B2 | 
[V:1] c2d2e4- | 
[V:2] c8 | 
[V:3] A8- | 
[V:1] e4d2c2 | 
[V:2] e4f4 | 
[V:3] A8 | 
[V:1] B4d4- | 
[V:2] g8 | 
[V:3] G4_B4- | 
[V:1] d2c2c4- | 
[V:2] f4e4 | 
[V:3] B4c4 | 
[V:1] c4B4 | 
[V:2] d8 | 
[V:3] G8 | 
[V:1] c8 |]  
[V:2] c8 |]  
[V:3] g8 |]  



